X:1
T:Calgary, 77.77 D
T:Calgary, 77.77 D
T:Thomas Frank Allen, 1884
T:Public Domain Courtesy of the Cyber Hymnal™
C:Thomas Frank Allen, 1884
Z:Public Domain
Z:Courtesy of the Cyber Hymnal™
%%score ( 1 2 ) ( 3 4 )
L:1/8
Q:1/4=90
M:3/4
K:A
V:1 treble 
V:2 treble 
V:3 bass 
V:4 bass 
V:1
"^Earnestly" [CE]>[^B,^D] | [CE]3 [CE] [CA]>[EG] | [DF]4 [FB]>[FA] | [EG]3 [EA] [EB]>[Ec] | %4
 [EA]4 [CE]>[^B,^D] | [CE]3 [CE] [CA]>[EG] | [DF]4 [FB]>[FA] | [EG]3 [EG] [DF]>[DG] | %8
 [CA]4 [EG]>[EA] | [EB]3 [EB] [EG]>[EA] | [EB]4 [EA]>[EB] | [Ec]3 [EB] [EA]>[Ec] | %12
 B4 [CE]>[^B,^D] | [CE]3 [CE] [EA]>[EG] | [DF]4 [FB]>[FA] | [EG]3 [EG] [DF]>[DG] | [CA]4 |] %17
V:2
 x2 | x6 | x6 | x6 | x6 | x6 | x6 | x6 | x6 | x6 | x6 | x6 | E2 ^D2 x2 | x6 | x6 | x6 | x4 |] %17
V:3
 [A,,A,]>[A,,A,] | [A,,A,]3 [A,,A,] [A,,A,]>[C,A,] | [D,A,]4 [D,D]>[D,D] | %3
 [E,B,]3 [E,C] [E,D]>[E,E] | [A,,C]4 [A,,A,]>[A,,A,] | [A,,A,]3 [A,,A,] [A,,A,]>[C,A,] | %6
 [D,A,]4 [D,D]>[D,D] | [E,B,]3 [E,B,] [E,B,]>[E,B,] | [A,,A,]4 [E,B,]>[E,C] | %9
 [E,D]3 [E,D] [E,B,]>[E,C] | [E,D]4 [C,A,]>[E,G,] | A,3 [E,G,] [D,A,]>[A,,A,] | [E,G,]4 A,>A, | %13
 A,3 A, [C,A,]>[C,A,] | [D,A,]4 [D,D]>[^D,B,] | [E,B,]3 [E,B,] [E,B,]>[E,B,] | [A,,A,]4 |] %17
V:4
 x2 | x6 | x6 | x6 | x6 | x6 | x6 | x6 | x6 | x6 | x6 | A,3 x3 | x4 A,>A, | A,3 A, x2 | x6 | x6 | %16
 x4 |] %17

